X: 881
M: C
L: 1/8
K: G
V: 1
(c |\
|: g |\
fgaf gabg | fgaf beeg |\
fgaf gab(g | f)de^c dDD :|
V: 2 clef=bass middle=d
z |\
g2g2 d2d2 | g2g2 e2e2 |\
g2g2 d2d2 | A2A2 D2D :|\
|: z |\
d2d2 d2d2 | d2d2 e2e2 |\
d2d2 g2g2 | a2a2 d2d :|

